X:13915
T:Rakes of Kildare Jig  (Gm)
M:6/8
L:1/8
K:Gm
D|D2 G GFG|ABc d2 e|f=ef d=ed|cAG F2 D|!
DGG GFG|ABc d2 =e|f=ed cAF|AGG G2:|!
|:d|gfg d=ef|gfg a2 g|f=ef d=ed|cAG F2 d|!
gfg d=ef|gfg a2 g|f=ed cAF|AGG G2:|!
